packages/ffe-icons/icons/open/300/sm/screenshot_frame.svg

<svg xmlns="http://www.w3.org/2000/svg" height="20" viewBox="0 -960 960 960" width="20"><path d="M238.211-672q-10.979 0-18.594-7.465-7.616-7.465-7.616-18.534v-81.692q0-27.008 18.65-45.658 18.65-18.65 45.658-18.65h81.692q11.069 0 18.534 7.405Q384-829.189 384-818.21q0 10.98-7.465 18.595Q369.07-792 358.001-792h-81.692q-4.616 0-8.463 3.846-3.846 3.847-3.846 8.463v81.692q0 11.069-7.405 18.534Q249.191-672 238.211-672Zm38.098 555.999q-27.008 0-45.658-18.65-18.65-18.65-18.65-45.658v-81.692q0-11.069 7.405-18.534Q226.811-288 237.79-288q10.98 0 18.595 7.465Q264-273.07 264-262.001v81.692q0 4.616 3.846 8.463 3.847 3.846 8.463 3.846h81.692q11.069 0 18.534 7.405Q384-153.191 384-142.211q0 10.979-7.465 18.594-7.465 7.616-18.534 7.616h-81.692ZM722.21-672q-10.98 0-18.595-7.465Q696-686.93 696-697.999v-81.692q0-4.616-3.846-8.463-3.847-3.846-8.463-3.846h-81.692q-11.069 0-18.534-7.405Q576-806.809 576-817.789q0-10.979 7.465-18.594 7.465-7.616 18.534-7.616h81.692q27.008 0 45.658 18.65 18.65 18.65 18.65 45.658v81.692q0 11.069-7.405 18.534Q733.189-672 722.21-672ZM601.999-116.001q-11.069 0-18.534-7.405Q576-130.811 576-141.79q0-10.98 7.465-18.595Q590.93-168 601.999-168h81.692q4.616 0 8.463-3.846 3.846-3.847 3.846-8.463v-81.692q0-11.069 7.405-18.534Q710.809-288 721.789-288q10.979 0 18.594 7.465 7.616 7.465 7.616 18.534v81.692q0 27.008-18.65 45.658-18.65 18.65-45.658 18.65h-81.692Z"/></svg>

<svg xmlns="http://www.w3.org/2000/svg" height="20" viewBox="0 -960 960 960" width="20"><path d="M238.21-672q-10.98 0-18.59-7.47Q212-686.93 212-698v-81.69q0-27.01 18.65-45.66Q249.3-844 276.31-844H358q11.07 0 18.53 7.41 7.47 7.4 7.47 18.38 0 10.98-7.47 18.59Q369.07-792 358-792h-81.69q-4.62 0-8.46 3.85-3.85 3.84-3.85 8.46V-698q0 11.07-7.4 18.53-7.41 7.47-18.39 7.47Zm38.1 556q-27.01 0-45.66-18.65Q212-153.3 212-180.31V-262q0-11.07 7.41-18.53 7.4-7.47 18.38-7.47 10.98 0 18.59 7.47Q264-273.07 264-262v81.69q0 4.62 3.85 8.46 3.84 3.85 8.46 3.85H358q11.07 0 18.53 7.4 7.47 7.41 7.47 18.39t-7.47 18.59Q369.07-116 358-116h-81.69Zm445.9-556q-10.98 0-18.59-7.47Q696-686.93 696-698v-81.69q0-4.62-3.85-8.46-3.84-3.85-8.46-3.85H602q-11.07 0-18.53-7.4-7.47-7.41-7.47-18.39t7.47-18.59Q590.93-844 602-844h81.69q27.01 0 45.66 18.65Q748-806.7 748-779.69V-698q0 11.07-7.41 18.53-7.4 7.47-18.38 7.47ZM602-116q-11.07 0-18.53-7.41-7.47-7.4-7.47-18.38 0-10.98 7.47-18.59Q590.93-168 602-168h81.69q4.62 0 8.46-3.85 3.85-3.84 3.85-8.46V-262q0-11.07 7.4-18.53 7.41-7.47 18.39-7.47t18.59 7.47Q748-273.07 748-262v81.69q0 27.01-18.65 45.66Q710.7-116 683.69-116H602Z"/></svg>
